P3
8 8
255
230 240 250 230 240 250 70 140 210 70 140 210 250 210 80 250 210 80 245 245 245 245 245 245
230 240 250 70 140 210 70 140 210 250 210 80 250 210 80 245 245 245 245 245 245 245 245 245
120 190 120 120 190 120 70 140 210 70 140 210 250 210 80 250 210 80 190 120 180 190 120 180
120 190 120 120 190 120 120 190 120 70 140 210 70 140 210 190 120 180 190 120 180 190 120 180
250 210 80 250 210 80 120 190 120 120 190 120 70 140 210 70 140 210 230 240 250 230 240 250
250 210 80 245 245 245 245 245 245 120 190 120 120 190 120 70 140 210 70 140 210 230 240 250
190 120 180 190 120 180 245 245 245 245 245 245 120 190 120 120 190 120 70 140 210 70 140 210
245 245 245 190 120 180 190 120 180 245 245 245 245 245 245 120 190 120 120 190 120 70 140 210
